!!!COM: Music21
!!!OTL: Marcha Procesional
!!!OMV: pezas_marchas_marcha-procesional-2_marcha-procesional-partitura-1.musicxml
**kern
*part1
*staff1
*I"Bagpipes
*I'Bag
*clefG^2
*k[]
*M2/4
=1
!LO:TX:a:t=Adagio
*MM80
!LO:TX:a:t=[quarter]=80
4.ccc
16bbLL
16aaJJ
=
4gg
4gg
=
4.aa
16ggLL
16ffJJ
=
4ee
4ee
=
4.gg
16ffLL
16eeJJ
=
4dd
4dd
=
4.ff
16eeLL
16ddJJ
=
4ee
4cc
=
4.ccc
16bbLL
16aaJJ
=
4gg
4gg
=
4.aa
16ggLL
16ffJJ
!!linebreak:original
=
4ee
4ee
=
4.gg
16ffLL
16eeJJ
!!linebreak:original
=
4dd
4ee
=
4cc
8.ccL
16ccJk
=
2cc
=||
*M2/4
!LO:TX:a:t=Adagio
*MM80
!LO:TX:a:t=[quarter]=80
4.ccc
16bbLL
16aaJJ
=
4gg
4gg
=
4.aa
16ggLL
16ffJJ
=
4ee
4ee
=
4.gg
16ffLL
16eeJJ
=
4dd
4dd
=
4.ff
16eeLL
16ddJJ
=
4ee
4cc
!!linebreak:original
=
4.ccc
16bbLL
16aaJJ
=
4gg
4gg
=
4.aa
16ggLL
16ffJJ
=
4ee
4ee
=
4.gg
16ffLL
16eeJJ
!!linebreak:original
=
4dd
4ee
=
4cc
8.ccL
16ccJk
=
4cc
8.ccL
16ddJk
=||
4.ee
8aa
=
8ggL
16ffL
16eeJJ
8ddL
16ccL
16ddJJ
=
[2ee
=
4ee]
8.ccL
16ddJk
=
4.ee
8aa
=
8ggL
16ffL
16eeJJ
8ddL
16ccL
16eeJJ
=
[2dd
=
4dd]
8.ccL
16ddJk
!!linebreak:original
=
4.ee
8aa
=
8ggL
16ffL
16eeJJ
8ddL
16ccL
16ddJJ
=
[2ee
=
4ee]
8.eeL
16ffJk
=
4gg
8.eeL
16ccJk
=
4ff
8.ddL
16bJk
=
[2cc
=
4cc]
8.ccL
16ddJk
=||
4.ee
8aa
=
8ggL
16ffL
16eeJJ
8ddL
16ccL
16ddJJ
=
[2ee
!!pagebreak:original
=
4ee]
8.ccL
16ddJk
=
4.ee
8aa
=
8ggL
16ffL
16eeJJ
8ddL
16ccL
16eeJJ
=
[2dd
=
4dd]
8.ccL
16ddJk
!!linebreak:original
=
4.ee
8aa
=
8ggL
16ffL
16eeJJ
8ddL
16ccL
16ddJJ
=
[2ee
=
4ee]
8.eeL
16ffJk
=
4gg
8.eeL
16ccJk
=
4ff
8.ddL
16bJk
=
[2cc
=
4cc]
8.ccL
16ddJk
=||
4ee
4gg
=
4cc
8.ccL
16ddJk
=
4ee
4gg
!!linebreak:original
=
4cc
8.ccL
16ddJk
!!linebreak:original
=
4ee
8.ffL
16ddJk
=
2ee
=
[2dd
=
2dd]
=||
*-
!!!system-decoration: s1,s2
